X:46
T:Newmarket, The
M:2/4
L:1/8
R:polka
D:Irish times by Patrick street
D:Jackie Daly And Seamus Creagh by Jackie Daly And Seamus Creagh
K:Amaj
E2 |: A>B cB | AF FE | CE FE | CE FE|
A>B cB | AF FE | CE FE |1 A2 AE :|2 A2 A2 ||
|: ag/a/ ga | ba af | ec cB | AB ce |
ag/a/ ga | ba af | ec cB |1 A2 Ae :|2 Az ||
|:e2c2 | BE A>c | BE AB | cB Bc |
e2c2 | BE A>c | BE AB | cA Ac :|
|:ef/2g/2 a2 | gf f>e | ce fg | fe e2 |
ef/2g/2 a2 | gf f>e | ce fg | a2 a2 :|
EE Ec| BA FA |EE Ec | BA AF |
EE Ec| BA FA |E2 ec |1 BA AF:|2BA AB||
ce Bc| BA FA |ce Bc | BA AB |
ce Bc| BA FA |EE Ec | BA AB |
ce Bc| BA FA |ce (3Bce | fe cB|
ce Bc| BA FA |EE Ec | BA AB |
